src/assets/img/icons/svgexport-8.svg

<svg xmlns="http://www.w3.org/2000/svg" xmlns:xlink="http://www.w3.org/1999/xlink" width="25" height="25" viewBox="0 0 30 30" version="1.1">
    <g id="Page-1" stroke="none" stroke-width="1" fill="none" fill-rule="evenodd">
        <g id="like">
            <circle id="Oval" fill="#AD5CB7" cx="15" cy="15" r="15"/>
            <path d="M20.1916761,13.8303033 C20.0426612,12.1901567 18.8817578,11.0001963 17.4289106,11.0001963 C16.4610003,11.0001963 15.5747636,11.5210617 15.0760836,12.3558598 C14.5819192,11.5102635 13.7320037,11 12.7796035,11 C11.3269527,11 10.165853,12.1899603 10.0170343,13.8301069 C10.0052545,13.902553 9.95695711,14.2838272 10.1038125,14.9056065 C10.315457,15.8024451 10.8043204,16.6181991 11.5171971,17.2641271 L15.0737276,20.4916074 L18.691317,17.2643234 C19.4041937,16.6181991 19.8930572,15.8026414 20.1047017,14.9056065 C20.251557,14.2840235 20.2032597,13.9027493 20.1916761,13.8303033 Z" id="Shape" fill="#FFFFFF" fill-rule="nonzero"/>
        </g>
    </g>
</svg>

<svg xmlns="http://www.w3.org/2000/svg" width="25" height="25" viewBox="0 0 30 30"><g fill="none" fill-rule="evenodd"><circle fill="#AD5CB7" cx="15" cy="15" r="15"/><path d="M20.192 13.83c-.15-1.64-1.31-2.83-2.763-2.83-.968 0-1.854.521-2.353 1.356C14.582 11.51 13.732 11 12.78 11c-1.453 0-2.614 1.19-2.763 2.83-.012.073-.06.454.087 1.076.211.896.7 1.712 1.413 2.358l3.557 3.228 3.617-3.228a4.614 4.614 0 0 0 1.414-2.358c.147-.622.098-1.003.087-1.076Z" fill="#FFF" fill-rule="nonzero"/></g></svg>
